X:1
T:Faith Brings the Victory
T:Faith Brings the Victory
T:Melvin Joyner Hill
T:Melvin Joyner Hill, 1910
T:Public Domain Courtesy of the Cyber Hymnal™
T:Public Domain Courtesy of the Cyber Hymnal™
C:Melvin Joyner Hill
Z:Public Domain
Z:Courtesy of the Cyber Hymnal™
%%score ( 1 2 ) ( 3 4 )
L:1/8
Q:1/4=105
M:4/4
K:C
V:1 treble 
V:2 treble 
V:3 bass 
V:4 bass 
V:1
 [CE]>[DF] | [EG]2 [CE]>[CD] C2 [EA]2 | [EA]2 [CE]4 ([EA]>[EB]) | [Ec]2 (B>A) [EG]2 [EA]>[EA] | %4
w: 1.~Do you|see in the dist- ance|yon- der, That *|line drawn * up in ar-|
w: 2.~They are|march- ing a- way to|con- quest That~shall *|ne- ver- * know a de-|
 [DF]6 [B,D]>[B,E] | [B,F]2 [B,E]>[B,D] [B,E]2 [B,F]2 | [EG]2 [Fc]4 ([Ec][Ec]) | %7
w: ray? ’Tis the|host of the Loy- al|Leag- uers, Come *|
w: feat, For the|Christ hath as- sured all|vic- t’ry Who~are *|
 [^FB]2 [FA]>[FB] [Fc]2 [FA]2 | ([Gd]4 [DG]2) (A>B) | [Ec]2 [EB]>[EA] [EG]2 [EA]2 | %10
w: forth to the con- quest|day. * They *|fol- low the blood- stained|
w: faith- ful and scorn re-|treat. * Then *|join this ad- vanc- ing|
 [EA]2 [EG]4 ([EA]>[EB]) | [Ec]2 [EB]>[Ec] [Ee]2 [EG]2 | A6 [FG]>[FA] | %13
w: ban- ner, And~the *|path that their Mas- ter|trod, For their|
w: ar- my, And *|look to the throne a-|bove, Lift the|
 [EG]2 [EG]>[EG] [FA]2 [FB]2 | [Ec]4 !fermata![Ee]2 [Ad]>[Ad] | [Gc]2 [Gc]>[Gd] [Gc]2 [GB]2 | %16
w: sign is the cross of|Cal- v’ry, And their|sword is the Word of|
w: form of thy fall- en|bro- ther, A- nd|point to the God of|
 [Ec]6 z2 ||"^Refrain" [ce]>[ce] [ce]3 [ce][ce][ce] x | [Ge]>[Ae] [Ge]3 [Ge][Ae][Be] x | %19
w: God.|Vic- to- ry, we’ll sing of|vic- to- ry, For Christ hath|
w: love.|||
 [de][ce][Be][ce] [Ge]2 [Ae]2 x | [Bf]6 z2 x5/2 | [df]>[df] [df]3 [Gf][Af][Bf] | %22
w: prom- ised us the vic- to-|ry;|Vic- to- ry, we’ll sing of|
w: |||
 [ce]>[ce] [ce]4 !fermata![FAdf]2 | [Gce]3 [Gc] [Gc]2 [FGBd]2 | [Gc]6 |] %25
w: vic- to- ry, Faith|brings the vic- to-|ry.|
w: |||
V:2
 x2 | x4 C2 x2 | x8 | x2 E2 x4 | x8 | x8 | x8 | x8 | x6 F2 | x8 | x8 | x8 | (F2 ^C2 D2) x2 | x8 | %14
 x8 | x8 | x8 || x9 | x9 | x9 | x21/2 | x8 | x8 | x8 | x6 |] %25
V:3
 [C,G,]>[C,G,] | [C,C]2 [C,G,]>[C,F,] [C,E,]2 [C,C]2 | [C,C]2 [C,G,]4 [C,C]->[C,C] | %3
 [C,G,]2 [C,G,]2 [B,,C]2 [B,,C]>[B,,C] | [D,B,]6 [G,,G,]>[G,,G,] | %5
 [G,,G,]2 [G,,G,]>[G,,G,] [G,,G,]2 [G,,G,]2 | [C,C]2 [C,C]4 ([C,C][C,C]) | %7
 [D,C]2 [D,C]>[D,C] [D,C]2 [D,C]2 | [G,B,]6 (C>D) | [C,C]2 [C,G,]>[C,G,] [C,C]2 [C,C]2 | %10
 [C,C]2 [C,C]4 ([C,C]>[C,C]) | [C,G,]2 [C,G,]>[C,G,] [C,C]2 [E,C]2 | %12
 ([F,C]2 [E,A,]2 [D,F,]2) [D,B,]>[D,B,] | [E,C]2 [E,C]>[E,C] [F,C]2 [D,D]2 | %14
 [C,C]4 !fermata![C,C]2 [F,DF]->[F,DF] | [G,E]2 [G,E]>[G,F] [G,E]2 [G,D]2 | [C,C]6 z2 || %17
 [C,,C,G,]2 [C,G,CE]2 [C,G,][C,G,] [G,CE]2 [C,E] | [C,,C,C]2 [C,G,CE]2 [C,C][C,C] [G,CE]2 [C,G,] | %19
 [C,G,][C,G,] [CE]2 [C,G,] [C,,C,C]2 [C,G,CE]2 | %20
 [D,D]4 ([G,,G,]/[B,,B,][A,,A,][G,,G,][F,,F,][D,,D,][G,,G,]) | %21
 [D,,D,G,D]2 [G,B,D]2 D[G,D] z [G,D] | [C,,C,C]2 [C,G,CE]2 [C,,C,D]2 !fermata![F,,F,D]2 | %23
 [G,C]3 [G,CE] [G,CE]2 [G,,B,F]2 | [C,CE]6 |] %25
V:4
 x2 | x8 | x8 | x8 | x8 | x8 | x8 | x8 | x6 G,2 | x8 | x8 | x8 | x8 | x8 | x8 | x8 | x8 || %17
 x3 C,,2 C, x3 | x3 E,,2 C, x3 | C,,2 [C,G,] x6 | D,,3/2 x9 | x4 [G,,G,]2 [G,B,D]2 | x8 | x8 | %24
 x6 |] %25

